X: 2
T: ~
M: 9/8
L: 1/8
R: slip jig
K: D Major
|: e |\ 
f2 f ged cBA | f2 f gef g2 e | 
f2 f ged cBA | f/g/af  gec d2 :|
|: B |\
c2 A BGB AFD | c2 A ABc d2 d | 
c2 A BGB AFd | c2 e AA/B/c d2 :|
